X: 1
T: School for Lovers [G]
B: Thompson's Compleat Collection, London 1773
B: Kate Van Winkle Keller & George A Fogg, "No Kissing Allowed in School!" A Virginia Dancing School in 1784
R: jig
Z: 2008 John Chambers <jc@trillian.mit.edu>
M: 6/8
L: 1/8
K: G
"A"\
|: "G"G2d B2d | "D7"c2d A2c | "G"B2d G2B | "D7"ABG FED \
|  "G"G2g "C"e2g | "D"f2a d2f | "A7"egf ed^c | "D"d3 D3 :|
"B"\
[| "G"d2B d2B | "D7"c2A c2A | "G"gdB "D7"cAG | FAG FED \
|  "G"d2B d2B | "D7"c2A c2A | "G"gdB "D7"cAG | "G"G3 G,3 |]
"C"\
[| "G"D2D "D7"C2B, | "G"D2D "D7"C2B, | "G"GAB "C"ABc | "G"BAG "D7"AFD \
|  "G"D2D "D7"C2B, | "G"D2D "D7"C2B, | "C"A,cB "D7"AGF | "G"G3 G,3 |]
